tools/download-figma-icons/icons/outlined-medium/construction.svg

<svg width="24" height="24" viewBox="0 0 24 24" fill="none" xmlns="http://www.w3.org/2000/svg">
<path fill-rule="evenodd" clip-rule="evenodd" d="M21.3105 12.7499L22.5 11.5604V12.7499H21.3105ZM18 22.4999H19.5V14.2499H18V22.4999ZM4.50007 22.4999H6.00006V14.2499H4.50007V22.4999ZM1.50008 11.5604L4.81057 8.24996H7.93955L3.43957 12.7499H1.50008V11.5604ZM2.68958 8.24996L1.50008 9.43945V8.24996H2.68958ZM4.50007 5.89345C4.74082 5.9557 4.98906 5.99995 5.25006 5.99995C5.51106 5.99995 5.75931 5.9557 6.00006 5.89345V6.74994H4.50007V5.89345ZM5.25006 1.49999C6.07656 1.49999 6.75006 2.17274 6.75006 2.99998C6.75006 3.82723 6.07656 4.49998 5.25006 4.49998C4.42282 4.49998 3.75007 3.82723 3.75007 2.99998C3.75007 2.17274 4.42282 1.49999 5.25006 1.49999ZM18 5.89345C18.2407 5.9557 18.489 5.99995 18.75 5.99995C19.011 5.99995 19.2592 5.9557 19.5 5.89345V6.74994H18V5.89345ZM18.75 1.49999C19.5765 1.49999 20.25 2.17274 20.25 2.99998C20.25 3.82723 19.5765 4.49998 18.75 4.49998C17.9227 4.49998 17.25 3.82723 17.25 2.99998C17.25 2.17274 17.9227 1.49999 18.75 1.49999ZM15.3105 8.24996H18.4395L13.9395 12.7499H10.8106L15.3105 8.24996ZM6.75007 12.7499H5.56058L10.0606 8.24996H13.1895L8.68956 12.7499H6.75007ZM22.5 9.43945L19.1895 12.7499H17.25H16.0605L20.5605 8.24996H22.5V9.43945ZM23.25 6.74997H21V4.96347C21.4605 4.43548 21.75 3.75373 21.75 2.99998C21.75 1.34549 20.4045 0 18.75 0C17.0955 0 15.75 1.34549 15.75 2.99998C15.75 3.75373 16.0395 4.43548 16.5 4.96347V6.74997H7.50008V4.96347C7.96058 4.43548 8.25008 3.75373 8.25008 2.99998C8.25008 1.34549 6.90459 0 5.2501 0C3.5956 0 2.25011 1.34549 2.25011 2.99998C2.25011 3.75373 2.53961 4.43548 3.00011 4.96347V6.74997H0.750118C0.33537 6.74997 0.00012207 7.08596 0.00012207 7.49996V13.4999C0.00012207 13.9139 0.33537 14.2499 0.750118 14.2499H3.00011V23.2499C3.00011 23.6639 3.33536 23.9999 3.7501 23.9999H6.75009C7.16484 23.9999 7.50008 23.6639 7.50008 23.2499V14.2499H16.5V23.2499C16.5 23.6639 16.8353 23.9999 17.25 23.9999H20.25C20.6648 23.9999 21 23.6639 21 23.2499V14.2499H23.25C23.6648 14.2499 24 13.9139 24 13.4999V7.49996C24 7.08596 23.6648 6.74997 23.25 6.74997Z" fill="black"/>
</svg>

<svg xmlns="http://www.w3.org/2000/svg" width="24" height="24" fill="none" viewBox="0 0 24 24"><path fill="currentColor" fill-rule="evenodd" d="m21.31 12.75 1.19-1.19v1.19zM18 22.5h1.5v-8.25H18zm-13.5 0H6v-8.25H4.5zm-3-10.94 3.31-3.31h3.13l-4.5 4.5H1.5zm1.19-3.31L1.5 9.44V8.25zM4.5 5.893c.24.063.49.107.75.107.261 0 .51-.044.75-.107v.857H4.5zM5.25 1.5c.827 0 1.5.673 1.5 1.5s-.673 1.5-1.5 1.5-1.5-.673-1.5-1.5.673-1.5 1.5-1.5M18 5.893c.24.063.489.107.75.107s.51-.044.75-.107v.857H18zm.75-4.393c.826 0 1.5.673 1.5 1.5s-.674 1.5-1.5 1.5c-.827 0-1.5-.673-1.5-1.5s.673-1.5 1.5-1.5m-3.44 6.75h3.13l-4.5 4.5h-3.13zm-8.56 4.5H5.56l4.5-4.5h3.13l-4.5 4.5zM22.5 9.44l-3.31 3.31h-3.13l4.5-4.5h1.94zm.75-2.69H21V4.963c.46-.528.75-1.21.75-1.963 0-1.655-1.346-3-3-3s-3 1.345-3 3c0 .754.29 1.435.75 1.963V6.75h-9V4.963c.46-.528.75-1.21.75-1.963 0-1.655-1.345-3-3-3-1.654 0-3 1.345-3 3 0 .754.29 1.435.75 1.963V6.75H.75A.75.75 0 0 0 0 7.5v6c0 .414.335.75.75.75H3v9c0 .414.335.75.75.75h3a.75.75 0 0 0 .75-.75v-9h9v9c0 .414.335.75.75.75h3a.75.75 0 0 0 .75-.75v-9h2.25a.75.75 0 0 0 .75-.75v-6a.75.75 0 0 0-.75-.75" clip-rule="evenodd"/></svg>
